X:576
T:Farsfarspolska efter Jon Erik Hall
S:efter Jon Erik Hall
B:http://www.smus.se/earkiv/fmk/browselarge.php?lang=sw&katalogid=Hs+18&bildnr=00009
R:Polska
O:Hälsingland, Hassela
M:3/4
L:1/16
K:Am
Az!>![E2A,2] !>![E3A,3]A ABcA | Bz!>![^G2B,2] !>![G2B,3]B (dc)BA | (cB)A^G ABcd e2^f^g | a2>e2 (ef)ed (cd)cB | 
Az!>![E2A,2] !>![E3A,3]A ABcA | Bz!>![^G2B,2] !>![G2B,3]B (dc)BA | (cB)A^G ABcd e2cB | ^G2BG [A8A8] ::
e2^f^g a2fa fzd2 | d2e^f gzB2 =c2d2 | e2de =f2d2 e2c2 | (BA)^GA (BA)GA E4 |
e2^f^g a2fa fzd2 | d2e^f gzB2 =c2d2 | e2de =f2d2 e2c2 | (BA)(^GA) [B4G4] A4 :|
(:musicend:)
(:music:)
